resources/icons/svg/nav_sandbox.svg

<?xml version="1.0" encoding="UTF-8" standalone="no"?>
<svg
  version="1.1"
  id="nav_sandbox"
  xmlns="http://www.w3.org/2000/svg"
  xmlns:xlink="http://www.w3.org/1999/xlink"
  viewBox="0 0 16 16">
  <path
     d="M 8,0 V 2.0000142 H 4.9999977 v 0.9999882 h 1.0000006 v 5.0000165 c 0,0 -5.23651969,4.1423281 -5.00000385,6.9999931 C 1.0388774,15.469807 1.5644761,15.819603 1.9999952,16 H 14.000005 c 0.435519,-0.180284 0.961118,-0.530193 1.000001,-0.999988 0.236515,-2.857665 -5.000005,-6.9999931 -5.000005,-6.9999931 V 3.0000024 h 1.000002 V 2.0000142 H 8.9370008 V 0 Z M 6.8652334,2.8671897 H 8 v 0.3828286 h 0.5000002 v 0.249827 H 8 v 0.75001 h 0.5000002 v 0.249827 H 8 v 0.75001 H 8.5000002 V 5.4998972 H 8 v 0.7500101 h 0.5000002 v 0.249827 H 8 v 0.75001 h 0.5000002 v 0.249827 H 8 v 0.75001 h 0.5000002 v 0.249827 H 8 v 0.75001 h 0.5000002 v 0.249827 H 8 v 0.7500097 h 0.5000002 v 0.249827 H 8 v 0.517607 H 6.9882802 c 0.1997595,0.03024 0.3473842,0.202205 0.3476563,0.404296 C 7.3362687,11.647757 7.1524403,11.83148 6.92578,11.83114 6.6991177,11.83148 6.5152912,11.647833 6.5156234,11.420985 6.5152738,11.221426 6.6588147,11.050591 6.8554675,11.016689 H 4.0527313 C 5.2786927,9.6822123 6.5410143,8.6826777 6.5410143,8.6826777 6.7507102,8.5171343 6.8730385,8.2643971 6.8730461,7.9971465 V 2.9990953 c 7.748e-4,-0.044599 -0.00184,-0.088819 -0.00782,-0.1326615 z m 2.0722671,-1.89e-4 h 0.509766 v 5.8048675 c 0.00401,0.00333 0.00571,0.00756 0.00975,0.011339 0,0 1.2621705,0.9995725 2.4863305,2.3340108 H 9.4472665 8.9375005 Z m -1.111329,9.1291163 c 0.4319028,-3.03e-4 0.7823995,0.349228 0.7832037,0.781228 2.741e-4,0.432681 -0.3505401,0.783497 -0.7832037,0.783195 C 7.3942698,13.559746 7.0446469,13.209421 7.044921,12.777345 7.045723,12.346214 7.3950302,11.99691 7.8261715,11.996117 Z m -2.0019546,0.800769 c 0.7739031,-4.16e-4 1.4016816,0.626495 1.4023449,1.400391 4.146e-4,0.774653 -0.6276795,1.402773 -1.4023449,1.402357 -0.7739024,-6.8e-4 -1.4008063,-0.62846 -1.4003917,-1.402357 6.626e-4,-0.77314 0.6272513,-1.399711 1.4003917,-1.400391 z"
  />
</svg>

<?xml version="1.0" encoding="UTF-8" standalone="no"?>
<!-- Created with Inkscape (http://www.inkscape.org/) -->

<svg
   xmlns:dc="http://purl.org/dc/elements/1.1/"
   xmlns:cc="http://creativecommons.org/ns#"
   xmlns:rdf="http://www.w3.org/1999/02/22-rdf-syntax-ns#"
   xmlns:svg="http://www.w3.org/2000/svg"
   xmlns="http://www.w3.org/2000/svg"
   xmlns:sodipodi="http://sodipodi.sourceforge.net/DTD/sodipodi-0.dtd"
   xmlns:inkscape="http://www.inkscape.org/namespaces/inkscape"
   width="16"
   height="16"
   viewBox="0 0 4.2333332 4.2333335"
   version="1.1"
   id="svg4492"
   inkscape:version="0.92.1 r"
   sodipodi:docname="nav_sandbox.svg">
  <defs
     id="defs4486" />
  <sodipodi:namedview
     id="base"
     pagecolor="#ffffff"
     bordercolor="#666666"
     borderopacity="1.0"
     inkscape:pageopacity="0.0"
     inkscape:pageshadow="2"
     inkscape:zoom="54.9375"
     inkscape:cx="8"
     inkscape:cy="8"
     inkscape:document-units="px"
     inkscape:current-layer="layer1"
     showgrid="false"
     units="px"
     inkscape:window-width="1600"
     inkscape:window-height="1605"
     inkscape:window-x="1600"
     inkscape:window-y="55"
     inkscape:window-maximized="0" />
  <metadata
     id="metadata4489">
    <rdf:RDF>
      <cc:Work
         rdf:about="">
        <dc:format>image/svg+xml</dc:format>
        <dc:type
           rdf:resource="http://purl.org/dc/dcmitype/StillImage" />
        <dc:title></dc:title>
      </cc:Work>
    </rdf:RDF>
  </metadata>
  <g
     inkscape:label="Layer 1"
     inkscape:groupmode="layer"
     id="layer1"
     transform="translate(0,-292.76666)">
    <path
       style="stroke-width:3.77952743"
       d="M 8,0 V 2 H 5 v 1 h 1 v 5 c 0,0 -5.23651565,4.142337 -5,7 0.038883,0.469795 0.5644812,0.819603 1,1 h 12 c 0.435519,-0.180283 0.961117,-0.530205 1,-1 0.236515,-2.857663 -5,-7 -5,-7 V 3 h 1 V 2 H 8.9370001 V 0 Z M 6.8652344,2.8671875 H 8 V 3.25 H 8.5 V 3.5 H 8 V 4.25 H 8.5 V 4.5 H 8 V 5.25 H 8.5 V 5.5 H 8 V 6.25 H 8.5 V 6.5 H 8 V 7.25 H 8.5 V 7.5 H 8 V 8.25 H 8.5 V 8.5 H 8 V 9.25 H 8.5 V 9.5 H 8 v 0.75 H 8.5 V 10.5 H 8 v 0.517578 H 6.9882812 c 0.1997579,0.03054 0.3473827,0.202218 0.3476563,0.404297 3.322e-4,0.22666 -0.1834958,0.410488 -0.4101563,0.410156 C 6.6991208,11.832363 6.5152928,11.648535 6.515625,11.421875 6.5152755,11.22231 6.6588157,11.051547 6.8554688,11.017578 H 4.0527344 C 5.2786948,9.6831045 6.5410156,8.6835936 6.5410156,8.6835938 6.7507123,8.517883 6.8730382,8.265316 6.8730469,7.9980469 V 3 C 6.8738217,2.955595 6.8712044,2.911195 6.8652344,2.8671875 Z M 8.9375,2.867 h 0.5097656 v 5.804875 c 0.004,0.00333 0.0057,0.00845 0.00977,0.011719 0,0 1.2621698,0.9995485 2.4863278,2.3339842 H 9.4472656 8.9375 Z m -1.1113281,9.129094 c 0.4319023,-2.74e-4 0.7823989,0.349348 0.7832031,0.78125 2.74e-4,0.432665 -0.3505386,0.783477 -0.7832031,0.783203 -0.4319016,-8.04e-4 -0.7815242,-0.351301 -0.78125,-0.783203 8.021e-4,-0.43114 0.3501102,-0.780448 0.78125,-0.78125 z m -2.0019531,0.800781 c 0.7739024,-4.15e-4 1.4016803,0.626489 1.4023437,1.400391 4.148e-4,0.774665 -0.627679,1.402758 -1.4023437,1.402343 -0.7739019,-6.64e-4 -1.4008053,-0.628441 -1.4003907,-1.402343 6.626e-4,-0.77314 0.6272508,-1.399728 1.4003907,-1.400391 z"
       transform="matrix(0.26458333,0,0,0.26458333,0,292.76666)"
       id="path6292"
       inkscape:connector-curvature="0"
       sodipodi:nodetypes="ccccccsccscccccccccccccccccccccccccccccccccccccccccccccccccccccccccccccccccccccc" />
  </g>
</svg>
